X: 39449
T: Tarantella Di Ronciglione
R: jig
M: 6/8
K: Eminor
|:EFG|B2E c2E|^A2B BAG|.F2F FGA|A2G EFG|
B2E c2E|^A2B BAG|.F2A AGF|E3:|
|:EFG|EFG EFG|.F2F .B2B|BcB AGF|A2G EFG|
EFG EFG|.F2F .B2B|BcB AGF|E3:|
DEF|GFG B^AB|.d2B BAG|.F2F EFE|E2D DEF|
GFG B^AB|.d2B BAG|Fed cBA|A2G DEF|
GFG B^AB|.d2B cBA|^GBd =feB|d2cc2B|
ABc cBA|GFE BAG|FGA AGF|E3 z3|

